svg/u00a9.svg

<svg viewBox="0 0 128 128" xmlns="http://www.w3.org/2000/svg">
  <path d="M4.51,58.36c0,0-2.87,20.96,9.33,39.44c10,15.14,25.92,25.31,48.06,25.78 c20.96,0.44,36.4-6.84,48.23-21.29c15.92-19.45,13.45-40.92,13.45-43.64c0-4.66-8.62,21.02-8.62,21.02l-24.28,31.6l-35.59,6.49 c0,0-28.44-12.47-28.61-13.14C26.31,103.95,4.51,58.36,4.51,58.36z" fill="#474C4F"/>
  <path d="M64.81,4.36C26.31,4.13,3.4,34.85,4.51,62.88c1.11,28.04,22.92,57.63,59.63,57.19 c36.71-0.45,58.63-31.05,59.46-58.03S101.3,4.59,64.81,4.36z M65.26,109.83c-21.58,0.89-48.73-16.24-48.06-45.62 c0.67-29.37,22.93-45.92,45.62-46.51c17.13-0.45,47.62,11.79,47.62,47.17C110.43,93.38,85.52,109,65.26,109.83z" fill="#606265"/>
  <path d="M10.1,44.93c-0.4,1.69-0.61,3.49,1.05,4.1c1.66,0.61,2.53-1.83,3.05-3.4 c0.52-1.57,6.77-14.58,16.27-22.34c10.33-8.44,23.2-11.34,25.03-11.86s3-1.78,2.7-2.88c-0.35-1.31-2.25-1.26-3.75-1.05 C53.19,7.69,40.37,8.9,27.1,19.73C14.28,30.19,10.53,43.1,10.1,44.93z" fill="#9A9A9A"/>
  <path d="M48.15,59.74c0.23-1.73,2.04-9.74,6.25-13.27c8.87-7.45,18.14-3.04,20.91,1.92 c2.55,4.56,1,8.75,5.16,9.79c4.16,1.04,8.61,0.27,9.93-2.42c1.74-3.55-0.15-9.14-0.95-10.07c-0.81-0.92-24.1-10.83-24.1-10.83 s-17.78,9.47-17.78,9.81s-1.39,16.05-1.39,16.05L48.15,59.74z" fill="#474C4F"/>
  <path d="M33.22,74.81c0,0,1.08,7.9,7.7,15.82c5.23,6.26,13.96,9.33,23.27,9.23 C86.4,99.61,91.1,82.48,91.1,80.28S75.97,91.31,75.97,91.31l-13.74-2.19L33.22,74.81z" fill="#474C4F"/>
  <path d="M63.15,28.74c-16.39-0.07-32.31,11.32-30.94,38.21c1.5,29.44,25.17,30.37,31.4,30.48 c13.16,0.23,26.09-8.31,27.82-18.01c1.41-7.87-3-8.77-6.58-8.77c-3.58,0-5.66,0.46-7.74,5.08C75.04,80.35,71.23,86,63.84,85.77 s-15.82-4.73-15.7-23.09s9.69-22.08,16.58-21.97c7.36,0.12,10.41,2.83,12.43,5.79c2.04,2.99,2.57,7.1,5.52,7.71 c2.77,0.58,8.3,0.15,8.41-1.81S88.67,28.86,63.15,28.74z" fill="#606265"/>
  <path d="M54.63,35.16c1.98,1.85-2.95,3.46-7.23,7.84s-6,9.72-7.74,8.96c-2.54-1.12-1.32-7.63,3.87-12.83 S53.1,33.74,54.63,35.16z" fill="#9A9A9A"/>
  <path d="M76.13,84.9c1.71,1.2,6.01-2.44,7.75-4.79c1.74-2.35,4.09-5.57,1.39-6.88 c-2.7-1.31-4.44,1.13-6.01,4.53C78.03,80.41,73.77,83.24,76.13,84.9z" fill="#9A9A9A"/>
</svg>

<svg viewBox="0 0 128 128" xmlns="http://www.w3.org/2000/svg">
  <defs/>
  <path d="M4.51,58.36 C4.51,58.36 1.64,79.32 13.84,97.8 C23.84,112.94 39.76,123.11 61.9,123.58 C82.86,124.02 98.3,116.74 110.13,102.29 C126.05,82.84 123.58,61.37 123.58,58.65 C123.58,53.99 114.96,79.67 114.96,79.67 L90.68,111.27 L55.09,117.76 C55.09,117.76 26.65,105.29 26.48,104.62 C26.31,103.95 4.51,58.36 4.51,58.36 Z" fill="#474C4F"/>
  <path d="M64.81,4.36 C26.31,4.13 3.4,34.85 4.51,62.88 C5.62,90.92 27.43,120.51 64.14,120.07 C100.85,119.62 122.77,89.02 123.6,62.04 C124.43,35.06 101.3,4.59 64.81,4.36 Z M65.26,109.83 C43.68,110.72 16.53,93.59 17.2,64.21 C17.87,34.84 40.13,18.29 62.82,17.7 C79.95,17.25 110.44,29.49 110.44,64.87 C110.43,93.38 85.52,109 65.26,109.83 Z" fill="#606265"/>
  <path d="M10.1,44.93 C9.7,46.62 9.49,48.42 11.15,49.03 C12.81,49.64 13.68,47.2 14.2,45.63 C14.72,44.06 20.97,31.05 30.47,23.29 C40.8,14.85 53.67,11.95 55.5,11.43 C57.33,10.91 58.5,9.65 58.2,8.55 C57.85,7.24 55.95,7.29 54.45,7.5 C53.19,7.69 40.37,8.9 27.1,19.73 C14.28,30.19 10.53,43.1 10.1,44.93 Z" fill="#9A9A9A"/>
  <path d="M48.15,59.74 C48.38,58.01 50.19,50 54.4,46.47 C63.27,39.02 72.54,43.43 75.31,48.39 C77.86,52.95 76.31,57.14 80.47,58.18 C84.63,59.22 89.08,58.45 90.4,55.76 C92.14,52.21 90.25,46.62 89.45,45.69 C88.64,44.77 65.35,34.86 65.35,34.86 C65.35,34.86 47.57,44.33 47.57,44.67 C47.57,45.01 46.18,60.72 46.18,60.72 L48.15,59.74 Z" fill="#474C4F"/>
  <path d="M33.22,74.81 C33.22,74.81 34.3,82.71 40.92,90.63 C46.15,96.89 54.88,99.96 64.19,99.86 C86.4,99.61 91.1,82.48 91.1,80.28 C91.1,78.08 75.97,91.31 75.97,91.31 L62.23,89.12 L33.22,74.81 Z" fill="#474C4F"/>
  <path d="M63.15,28.74 C46.76,28.67 30.84,40.06 32.21,66.95 C33.71,96.39 57.38,97.32 63.61,97.43 C76.77,97.66 89.7,89.12 91.43,79.42 C92.84,71.55 88.43,70.65 84.85,70.65 C81.27,70.65 79.19,71.11 77.11,75.73 C75.04,80.35 71.23,86 63.84,85.77 C56.45,85.54 48.02,81.04 48.14,62.68 C48.26,44.32 57.83,40.6 64.72,40.71 C72.08,40.83 75.13,43.54 77.15,46.5 C79.19,49.49 79.72,53.6 82.67,54.21 C85.44,54.79 90.97,54.36 91.08,52.4 C91.19,50.44 88.67,28.86 63.15,28.74 Z" fill="#606265"/>
  <path d="M54.63,35.16 C56.61,37.01 51.68,38.62 47.4,43 C43.12,47.38 41.4,52.72 39.66,51.96 C37.12,50.84 38.34,44.33 43.53,39.13 C48.72,33.93 53.1,33.74 54.63,35.16 Z" fill="#9A9A9A"/>
  <path d="M76.13,84.9 C77.84,86.1 82.14,82.46 83.88,80.11 C85.62,77.76 87.97,74.54 85.27,73.23 C82.57,71.92 80.83,74.36 79.26,77.76 C78.03,80.41 73.77,83.24 76.13,84.9 Z" fill="#9A9A9A"/>
</svg>
